packages/ffe-icons/icons/filled/sm/stairs.svg

<svg xmlns="http://www.w3.org/2000/svg" height="20" viewBox="0 -960 960 960" width="20"><path d="M409.999-394.001H480q11.05 0 18.524-7.5 7.475-7.501 7.475-18.589v-93.911H576q11.05 0 18.524-7.423 7.475-7.423 7.475-18.397v-94.18H660q11.05 0 18.524-7.418 7.475-7.418 7.475-18.384 0-10.966-7.475-18.581-7.474-7.615-18.524-7.615h-84.237q-10.513 0-18.138 7.5-7.624 7.501-7.624 18.589v93.911H480q-11.05 0-18.524 7.5-7.475 7.501-7.475 18.589v93.911H384q-11.05 0-18.524 7.423-7.475 7.423-7.475 18.397v94.18H300q-11.05 0-18.524 7.418-7.475 7.418-7.475 18.384 0 10.966 7.475 18.581 7.474 7.615 18.524 7.615h84.237q10.513 0 18.137-7.5 7.625-7.501 7.625-18.589v-93.911Zm-181.69 230q-27.008 0-45.658-18.65-18.65-18.65-18.65-45.658v-503.382q0-27.008 18.65-45.658 18.65-18.65 45.658-18.65h503.382q27.008 0 45.658 18.65 18.65 18.65 18.65 45.658v503.382q0 27.008-18.65 45.658-18.65 18.65-45.658 18.65H228.309Z"/></svg>

<svg xmlns="http://www.w3.org/2000/svg" height="20" viewBox="0 -960 960 960" width="20"><path d="M410-394h70q11.05 0 18.52-7.5Q506-409 506-420.09V-514h70q11.05 0 18.52-7.42 7.48-7.43 7.48-18.4V-634h58q11.05 0 18.52-7.42 7.48-7.42 7.48-18.38 0-10.97-7.48-18.58Q671.05-686 660-686h-84.24q-10.51 0-18.13 7.5Q550-671 550-659.91V-566h-70q-11.05 0-18.52 7.5Q454-551 454-539.91V-446h-70q-11.05 0-18.52 7.42-7.48 7.43-7.48 18.4V-326h-58q-11.05 0-18.52 7.42-7.48 7.42-7.48 18.38 0 10.97 7.48 18.58Q288.95-274 300-274h84.24q10.51 0 18.13-7.5Q410-289 410-300.09V-394ZM228.31-164q-27.01 0-45.66-18.65Q164-201.3 164-228.31v-503.38q0-27.01 18.65-45.66Q201.3-796 228.31-796h503.38q27.01 0 45.66 18.65Q796-758.7 796-731.69v503.38q0 27.01-18.65 45.66Q758.7-164 731.69-164H228.31Z"/></svg>
